src/lib/packages/icons/src/assets/line/heart-plus.svg

<svg width="24" height="24" viewBox="0 0 24 24" fill="none" xmlns="http://www.w3.org/2000/svg">
<path d="M19 17C19 17.414 18.664 17.75 18.25 17.75H17.75V18.25C17.75 18.664 17.414 19 17 19C16.586 19 16.25 18.664 16.25 18.25V17.75H15.75C15.336 17.75 15 17.414 15 17C15 16.586 15.336 16.25 15.75 16.25H16.25V15.75C16.25 15.336 16.586 15 17 15C17.414 15 17.75 15.336 17.75 15.75V16.25H18.25C18.664 16.25 19 16.586 19 17ZM21.75 17C21.75 19.619 19.619 21.75 17 21.75C15.895 21.75 14.89 21.355 14.083 20.72C13.061 21.342 12.3429 21.668 12.3089 21.684C12.2099 21.728 12.106 21.75 12 21.75C11.894 21.75 11.7879 21.728 11.6889 21.683C11.3619 21.534 3.66199 17.97 2.43199 11.612C1.95499 9.148 2.43402 6.747 3.71202 5.19C4.74702 3.93 6.234 3.259 8.015 3.25C8.021 3.25 8.02804 3.25 8.03404 3.25C10.072 3.25 11.312 4.40898 12 5.39398C12.687 4.40898 13.928 3.25 15.964 3.25C15.97 3.25 15.976 3.25 15.983 3.25C17.767 3.259 19.256 3.92903 20.29 5.18903C21.567 6.74503 22.045 9.14598 21.567 11.613C21.402 12.453 21.112 13.279 20.717 14.079C21.354 14.887 21.75 15.893 21.75 17ZM13.032 19.599C12.541 18.851 12.25 17.96 12.25 17C12.25 14.381 14.381 12.25 17 12.25C17.938 12.25 18.8069 12.532 19.5439 13.003C19.7829 12.451 19.982 11.892 20.093 11.326C20.487 9.29499 20.126 7.35599 19.129 6.14099C18.377 5.22499 17.316 4.757 15.975 4.75C15.971 4.75 15.967 4.75 15.963 4.75C13.587 4.75 12.7439 7.12898 12.7099 7.22998C12.6059 7.53298 12.32 7.73901 12 7.73901C11.998 7.73901 11.997 7.73901 11.996 7.73901C11.675 7.73801 11.39 7.53303 11.287 7.22803C11.254 7.13003 10.4109 4.75098 8.03294 4.75098C8.02894 4.75098 8.02498 4.75098 8.02098 4.75098C6.68398 4.75798 5.62395 5.22601 4.87095 6.14301C3.87295 7.36001 3.51203 9.298 3.90403 11.328C4.85603 16.254 10.596 19.451 12.001 20.166C12.237 20.047 12.6 19.852 13.032 19.599ZM20.25 17C20.25 15.208 18.792 13.75 17 13.75C15.208 13.75 13.75 15.208 13.75 17C13.75 18.792 15.208 20.25 17 20.25C18.792 20.25 20.25 18.792 20.25 17Z" fill="currentColor"/>
</svg>

<svg xmlns="http://www.w3.org/2000/svg" width="24" height="24" fill="none"><path fill="currentColor" d="M19 17a.75.75 0 0 1-.75.75h-.5v.5a.75.75 0 0 1-1.5 0v-.5h-.5a.75.75 0 0 1 0-1.5h.5v-.5a.75.75 0 0 1 1.5 0v.5h.5A.75.75 0 0 1 19 17Zm2.75 0A4.756 4.756 0 0 1 17 21.75a4.7 4.7 0 0 1-2.917-1.03c-1.022.622-1.74.948-1.774.964a.756.756 0 0 1-.62-.001c-.327-.149-8.027-3.713-9.257-10.071-.477-2.464.002-4.865 1.28-6.422 1.035-1.26 2.522-1.931 4.303-1.94h.019c2.038 0 3.278 1.159 3.966 2.144.687-.985 1.928-2.144 3.964-2.144h.019c1.784.009 3.273.679 4.307 1.939 1.277 1.556 1.755 3.957 1.277 6.424a9.882 9.882 0 0 1-.85 2.466A4.7 4.7 0 0 1 21.75 17Zm-8.718 2.599A4.72 4.72 0 0 1 12.25 17 4.756 4.756 0 0 1 17 12.25c.938 0 1.807.282 2.544.753.239-.552.438-1.111.549-1.677.394-2.031.033-3.97-.964-5.185-.752-.916-1.813-1.384-3.154-1.391h-.012c-2.376 0-3.22 2.379-3.253 2.48a.753.753 0 0 1-.71.509h-.004a.75.75 0 0 1-.709-.511c-.033-.098-.876-2.477-3.254-2.477H8.02c-1.337.007-2.397.475-3.15 1.392-.998 1.217-1.359 3.155-.967 5.185.952 4.926 6.692 8.123 8.097 8.838.236-.119.599-.314 1.031-.567ZM20.25 17A3.254 3.254 0 0 0 17 13.75 3.254 3.254 0 0 0 13.75 17 3.254 3.254 0 0 0 17 20.25 3.254 3.254 0 0 0 20.25 17Z"/></svg>
